src/icons/coala.svg

<svg viewBox="0 0 24 24" xmlns="http://www.w3.org/2000/svg">
  <path
    d="M22 8.94999C22 6.35999 20.26 5.31999 18.11 5.31999C17.21 5.31999 16.28 5.51999 15.51 5.88999C14.51 5.19999 13.34 4.79999 12 4.79999C10.66 4.79999 9.49 5.20999 8.49 5.88999C7.71 5.50999 6.79 5.31999 5.89 5.31999C3.74 5.31999 2 6.34999 2 8.94999C2 11.09 3.18 12.51 4.8 12.95C4.78 13.25 4.76 13.55 4.76 13.84C4.76 17.02 7.27 18.1 9.53 18.47C10.14 18.92 11.02 19.2 12 19.2C12.98 19.2 13.86 18.92 14.47 18.47C16.73 18.11 19.24 17.03 19.24 13.84C19.24 13.54 19.23 13.24 19.2 12.95C20.82 12.51 22 11.08 22 8.94999ZM7.30998 6.9C5.96998 8.33 5.11998 10.34 4.85998 12.45C4.13998 11.89 3.66998 10.97 3.66998 9.77C3.66998 7.7 5.05998 6.87 6.77998 6.87C6.95998 6.87 7.12998 6.88 7.30998 6.9ZM17.22 6.87C18.94 6.87 20.33 7.7 20.33 9.77C20.33 10.97 19.86 11.89 19.14 12.45C18.88 10.34 18.03 8.33 16.69 6.9C16.87 6.88 17.04 6.87 17.22 6.87ZM12 17.54C10.89 17.54 9.93 17.07 9.93 15.21C9.93 13.35 10.89 11.85 12 11.85C13.11 11.85 14.07 13.36 14.07 15.21C14.07 17.07 13.11 17.54 12 17.54ZM9.13388 12.6339C8.89946 12.8683 8.58152 13 8.25 13C7.91848 13 7.60054 12.8683 7.36612 12.6339C7.1317 12.3995 7 12.0815 7 11.75C7 11.4185 7.1317 11.1005 7.36612 10.8661C7.60054 10.6317 7.91848 10.5 8.25 10.5C8.58152 10.5 8.89946 10.6317 9.13388 10.8661C9.3683 11.1005 9.5 11.4185 9.5 11.75C9.5 12.0815 9.3683 12.3995 9.13388 12.6339ZM16.6339 12.6339C16.3995 12.8683 16.0815 13 15.75 13C15.4185 13 15.1005 12.8683 14.8661 12.6339C14.6317 12.3995 14.5 12.0815 14.5 11.75C14.5 11.4185 14.6317 11.1005 14.8661 10.8661C15.1005 10.6317 15.4185 10.5 15.75 10.5C16.0815 10.5 16.3995 10.6317 16.6339 10.8661C16.8683 11.1005 17 11.4185 17 11.75C17 12.0815 16.8683 12.3995 16.6339 12.6339Z"
    fill="#90A4AE"
  />
</svg>

<svg xmlns="http://www.w3.org/2000/svg" viewBox="0 0 24 24"><path xmlns="http://www.w3.org/2000/svg" d="M22 8.95c0-2.59-1.74-3.63-3.89-3.63-.9 0-1.83.2-2.6.57-1-.69-2.17-1.09-3.51-1.09-1.34 0-2.51.41-3.51 1.09-.78-.38-1.7-.57-2.6-.57C3.74 5.32 2 6.35 2 8.95c0 2.14 1.18 3.56 2.8 4-.02.3-.04.6-.04.89 0 3.18 2.51 4.26 4.77 4.63.61.45 1.49.73 2.47.73.98 0 1.86-.28 2.47-.73 2.26-.36 4.77-1.44 4.77-4.63 0-.3-.01-.6-.04-.89 1.62-.44 2.8-1.87 2.8-4" fill="#90a4ae"/><path xmlns="http://www.w3.org/2000/svg" d="M7.31 6.9c-.18-.02-.35-.03-.53-.03-1.72 0-3.11.83-3.11 2.9 0 1.2.47 2.12 1.19 2.68.26-2.11 1.11-4.12 2.45-5.55m9.91-.03c-.18 0-.35.01-.53.03 1.34 1.43 2.19 3.44 2.45 5.55.72-.56 1.19-1.48 1.19-2.68 0-2.07-1.39-2.9-3.11-2.9" fill="#f8bbd0"/><path xmlns="http://www.w3.org/2000/svg" d="M14.07 15.21c0 1.86-.96 2.33-2.07 2.33-1.11 0-2.07-.47-2.07-2.33s.96-3.36 2.07-3.36c1.11 0 2.07 1.51 2.07 3.36M9.5 11.75a1.25 1.25 0 1 1-2.5 0 1.25 1.25 0 0 1 2.5 0m7.5 0a1.25 1.25 0 1 1-2.5 0 1.25 1.25 0 0 1 2.5 0" fill="#263238"/></svg>
